!!!COM: Bach, Johann Sebastian
!!!CDT: 1685/3//-1750/7/28/
!!!OTL@@DE: O Traurigkeit
!!!AGN: 4-Part Chorale
!!!SCT: BH 57
!!!SCT: BWV 404
**harm	**root	**kern	**kern	**kern	**kern
!	!	!bass	!tenor	!alto	!soprno
*	*Iorgan	*Iorgan	*Iorgan	*Iorgan	*Iorgan
*	*	*clefF4	*clefF4	*clefG2	*clefG2
*k[b-e-]	*k[b-e-]	*k[b-e-]	*k[b-e-]	*k[b-e-]	*k[b-e-]
*g:	*g:	*g:	*g:	*g:	*g:
*M4/4	*M4/4	*M4/4	*M4/4	*M4/4	*M4/4
*met(c)	*met(c)	*met(c)	*met(c)	*met(c)	*met(c)
*MM60	*MM60	*MM60	*MM60	*MM60	*MM60
V	4EE	4D	4A	4f#	4dd
=1	=1	=1	=1	=1	=1
i	4AA	4G	8G	4d	8b-
.	.	.	8F#	.	8a
viio7c/V	4DD#	4GG	4E	8d	4b-
.	.	.	.	8c#	.
V	4EE	4D;	4F#;	4d;	4a;
Vd	4EE	4C	4A	4d	4f#
=2	=2	=2	=2	=2	=2
ib	4AA	4BB-	4B-	4d	4g
iv	4DD	4E-	8A	4c	4g
.	.	.	8G	.	.
V;	4EE;	4D;	4A;	4d;	4f#;
V	4EE	4D	4A	4f#	4dd
=3	=3	=3	=3	=3	=3
i	4AA	4G	4B-	4g	4dd
Vb	4EE	4F#	4A	4a	4dd
VI	4FF	8G	8B-	4g	4ee-
.	.	8A	8c	.	.
III	4CC	4B-	8d	4f	8dd
.	.	.	8B-	.	8cc
=4	=4	=4	=4	=4	=4
V7b/-VII	4DD	4E	4B-	4g	2cc
-VII	4GG	4F	4A	8f	.
.	.	.	.	8e-	.
III;	2CC;	2BB-;	2B-;	2d;	2b-;
!!linebreak: 2
=5	=5	=5	=5	=5	=5
-VII	4GG	4FF	4c	4f	4a
VIb	4FF	4GG	4B-	8e-	4b-
.	.	.	.	8d	.
-VIIb	4GG	4AA	4f	8c	4cc
.	.	.	.	8cc	.
III	4CC	4BB-	8F	4b-	4dd
.	.	.	8G	.	.
=6	=6	=6	=6	=6	=6
V7b	4EE	4F#	8A	4a	4cc
.	.	.	8D	.	.
i	4AA	4G	4d	4g	4b-
V;	2EE;	2D;	2d;	2f#;	2a;
=7	=7	=7	=7	=7	=7
#viD7	4FF#	4E	8d	4d	4g
.	.	.	[8c	.	.
V7b	4EE	4F#	8c]	4d	4a
.	.	.	[8B-	.	.
ib	4AA	8G	8B-]	4d	4b-
.	.	8F	8A	.	.
ivb	4DD	8E-	4G	8g	8cc
.	.	8D	.	8f	8dd
=8	=8	=8	=8	=8	=8
iv	4DD	4C	4G	4e-	2a
V7	4EE	4D	4F#	8d	.
.	.	.	.	8c	.
i;	2AA;	2GG;	2D;	2B-;	2g;
==	==	==	==	==	==
*-	*-	*-	*-	*-	*-
!!chor2scor: -l 2 -s 0.6 -o %b.pmx
!!!YEC: Copyright 2003 by Craig Stuart Sapp
!!!license: GNU General Public License (http://www.gnu.org/copyleft/gpl.html)
!!!SMA: 371 Bach Chorales, edited by Ludwig Erk, C.F. Peters
!!!PDT: 1850, 1865
!!!ONB: Harmony and Root analysis done manually by Craig Sapp
